X: 07119
T: TRINA McLENON
C: Bob McQuillen 17 June 89
B: Bob's Note Book 7 #119
%R: waltz
Z: 2019 John Chambers <jc:trillian.mit.edu>
M: 3/4
L: 1/8
K: G
DE \
| G2 B2 BA | G2 D2 GB | A2 AB cB | A2 E2 AB | c2 cd eg | g2 f2 ce | e2 d3 c | B4 DE |
| G2 Bc BA | G2 D2 GB | AG AB cB | A2 E2 AB | cd eg ag | g2 f2 cd | e2 d3 F | G4 ||
|| GA \
| B2 Bc BA | B2 G2 GB | A2 Ac BA | G2 ED EF | G2 GA GE | D2 G2 GA | BA G2 B2 | A4 Bc |
| d2 de dc | B2 G2 Bd | e2 ed ce | e2 d2 dc | B2 d2 de | d2 ce dc | B2 BG A2 | G4 |]
%%begintext align
%% You may have met
%% some of the other McLennons already in these
%% little books - Trina (pr. "Treena") is another delightful
%% member of that family, and I'm happy this waltz
%% came alone with her name on it. With love from MAC
%%endtext

% %sep 1 1 500
% %text There was no tune 120; its page was blank in my copy of the book.

%%sep 1 1 500

%%sep 1 1 500

